packages/core/src/svgs/rbx.svg

<svg width="24" height="24" viewBox="0 0 24 24" fill="none" xmlns="http://www.w3.org/2000/svg">
<g clip-path="url(#clip0_31_16927)">
<path d="M0 0H24V24H0V0Z" fill="#F0F3FA"/>
<path d="M7.19993 5.94878L4.28564 13.5516L9.09422 18.8574L16.7742 18.4974L19.2856 10.8131L14.8542 5.14307L7.19993 5.94878Z" fill="#00309D"/>
<path d="M7.39303 6.19271L4.60303 13.487L9.21446 18.5827L16.5859 18.2356L18.9902 10.8598L14.7387 5.41699L7.39303 6.19271Z" fill="#062682"/>
<path d="M8.01426 7.01585L5.61426 13.273L9.57854 17.6444L15.9085 17.3487L17.9785 11.023L14.3271 6.35156L8.01426 7.01585Z" fill="#0541D6"/>
<path d="M8.5285 7.69294L6.4585 13.1058L9.88278 16.8815L15.3471 16.6244L17.1342 11.1515L13.9799 7.11865L8.5285 7.69294Z" fill="#409BEA"/>
<path d="M8.99586 8.32706L7.21729 12.9428L10.153 16.1656L14.8416 15.9471L16.3759 11.2842L13.6716 7.84277L8.99586 8.33135V8.32706Z" fill="#58C5F5"/>
<path d="M9.45844 8.92716L7.97559 12.7843L10.427 15.4843L14.3356 15.3L15.6127 11.4L13.3584 8.52002L9.45844 8.92716Z" fill="#BAFCFD"/>
<path d="M11.6399 11.3358L7.16992 6.01296L7.26849 5.92725L11.7856 11.3101L9.17135 18.8444L9.05135 18.8015L11.6399 11.3401V11.3358Z" fill="#E1FFFE"/>
<path d="M14.7684 5.35303L19.0626 10.843L16.6284 18.2959L9.18836 18.6473L4.52979 13.5045L7.34979 6.13303L14.7684 5.35303ZM7.43979 6.25303L4.6755 13.4745L9.24407 18.5145L16.5341 18.1716L18.9212 10.873L14.7126 5.48588L7.43979 6.25303Z" fill="#E1FFFE"/>
<path d="M12.7928 11.1855L14.8928 5.20692L14.7728 5.16406L12.0257 12.9812L4.38428 13.5083L4.39285 13.6369L12.0428 13.1055L16.7271 18.5569L16.8214 18.4755L12.1414 13.0283L12.7414 11.3141L19.2686 10.8941L19.26 10.7655L12.7886 11.1855H12.7928Z" fill="#E1FFFE"/>
</g>
<defs>
<clipPath id="clip0_31_16927">
<rect width="24" height="24" fill="white"/>
</clipPath>
</defs>
</svg>

<svg xmlns="http://www.w3.org/2000/svg" width="24" height="24" fill="none" viewBox="0 0 24 24"><g clip-path="url(#a)"><path fill="#F0F3FA" d="M0 0h24v24H0z"/><path fill="#00309D" d="m7.2 5.949-2.914 7.603 4.808 5.305 7.68-.36 2.512-7.684-4.432-5.67z"/><path fill="#062682" d="m7.393 6.193-2.79 7.294 4.611 5.096 7.372-.347 2.404-7.376-4.251-5.443z"/><path fill="#0541D6" d="m8.014 7.016-2.4 6.257 3.965 4.371 6.33-.295 2.07-6.326-3.652-4.671z"/><path fill="#409BEA" d="m8.529 7.693-2.07 5.413 3.424 3.775 5.464-.257 1.787-5.472-3.154-4.033z"/><path fill="#58C5F5" d="m8.996 8.327-1.779 4.616 2.936 3.223 4.689-.219 1.534-4.663-2.704-3.441-4.676.488z"/><path fill="#BAFCFD" d="m9.458 8.927-1.482 3.857 2.451 2.7 3.909-.184 1.277-3.9-2.255-2.88z"/><path fill="#E1FFFE" d="M11.64 11.336 7.17 6.013l.098-.086 4.518 5.383-2.615 7.534-.12-.043 2.589-7.46z"/><path fill="#E1FFFE" d="m14.768 5.353 4.295 5.49-2.435 7.453-7.44.351-4.658-5.142 2.82-7.372zm-7.328.9-2.764 7.222 4.568 5.04 7.29-.343 2.387-7.299-4.208-5.387z"/><path fill="#E1FFFE" d="m12.793 11.186 2.1-5.98-.12-.042-2.747 7.817-7.642.527.009.129 7.65-.532 4.684 5.452.094-.081-4.68-5.448.6-1.714 6.528-.42-.009-.129-6.471.42z"/></g><defs><clipPath id="a"><path fill="#fff" d="M0 0h24v24H0z"/></clipPath></defs></svg>
